icons/desktop/16/fingerprinter-16.svg

<svg width="16" height="16" viewBox="0 0 16 16" fill="none" xmlns="http://www.w3.org/2000/svg">
<path d="M7.38867 0.220955C10.2487 -0.538045 13.4445 0.708752 14.9805 3.18775C16.0614 4.93397 17.2422 8.70355 13.0088 14.3479L12.7227 14.7024C12.5877 14.8813 12.3805 15.0012 12.1396 15.0012C11.7258 15.001 11.3896 14.6651 11.3896 14.2512C11.3897 14.0913 11.4511 13.9513 11.5371 13.8294L11.8105 13.4475C15.5095 8.51652 14.5861 5.39681 13.7061 3.97681C12.51 2.04715 10.0152 1.07838 7.77441 1.67213C5.63253 2.2401 4.23333 4.12909 4.0332 6.72486L4.03027 6.75025C4.03027 7.16417 3.69416 7.50012 3.28027 7.50025C2.86627 7.50025 2.53027 7.16425 2.53027 6.75025L2.53613 6.61158C2.78713 3.34968 4.60181 0.960032 7.38867 0.220955Z" fill="black"/>
<path d="M5.66602 5.97681C5.962 4.13691 7.84073 2.91001 9.84961 3.22584C11.8616 3.54984 13.2569 5.30964 12.9609 7.15064C12.9637 7.29793 12.7367 12.5881 7.97363 14.9407L7.97266 14.9397C7.87678 14.9816 7.77662 15.0003 7.67676 15.0003C7.38685 15.0002 7.11025 14.8301 6.98828 14.5462C6.82539 14.1653 7.00106 13.7249 7.38184 13.5618C11.2758 11.5788 11.4647 7.20306 11.4707 7.00806C11.6445 5.88726 10.8071 4.8984 9.6123 4.70631C8.43732 4.51631 7.35024 5.1674 7.15723 6.16139V7.30006C7.15723 8.99801 5.77508 10.3801 4.07715 10.3801H1.75C1.336 10.3801 1 10.0441 1 9.63013C1.00013 9.21624 1.33608 8.88013 1.75 8.88013H4.07617C4.94709 8.88004 5.65625 8.172 5.65625 7.30006L5.66602 5.97681Z" fill="black"/>
<path d="M9.25 6.00025C9.664 6.00025 10 6.33625 10 6.75025V7.26588C10 10.5289 7.35482 13.1751 4.09082 13.1751H1.75C1.336 13.1751 1 12.8381 1 12.4241C1.00009 12.0102 1.33606 11.6741 1.75 11.6741H4.09082C6.52582 11.6741 8.5 9.6999 8.5 7.2649V6.75025C8.5 6.33625 8.836 6.00025 9.25 6.00025Z" fill="black"/>
</svg>

<!-- This Source Code Form is subject to the terms of the Mozilla Public
   - License, v. 2.0. If a copy of the MPL was not distributed with this
   - file, You can obtain one at http://mozilla.org/MPL/2.0/. -->
<svg xmlns="http://www.w3.org/2000/svg" width="16" height="16" fill="context-fill" fill-opacity="context-fill-opacity" viewBox="0 0 16 16">
    <path d="M7.389.221c2.86-.759 6.055.488 7.591 2.967 1.081 1.746 2.262 5.516-1.971 11.16l-.286.354a.73.73 0 0 1-.583.3.75.75 0 0 1-.75-.75c0-.16.061-.3.147-.423l.273-.382c3.7-4.93 2.776-8.05 1.896-9.47-1.196-1.93-3.69-2.899-5.932-2.305-2.141.568-3.54 2.457-3.74 5.053l-.004.025a.75.75 0 0 1-1.5 0l.006-.138C2.787 3.35 4.602.96 7.39.22" />
    <path d="M5.666 5.977c.296-1.84 2.175-3.067 4.184-2.751 2.012.324 3.407 2.084 3.11 3.925.004.147-.223 5.437-4.986 7.79l-.001-.001a.75.75 0 0 1-.59-1.378c3.893-1.983 4.082-6.359 4.088-6.554.174-1.12-.664-2.11-1.859-2.302-1.175-.19-2.262.461-2.455 1.455v1.14a3.084 3.084 0 0 1-3.08 3.08H1.75a.75.75 0 0 1 0-1.5h2.326a1.583 1.583 0 0 0 1.58-1.58z" />
    <path d="M9.25 6a.75.75 0 0 1 .75.75v.516a5.91 5.91 0 0 1-5.91 5.91H1.75a.751.751 0 0 1 0-1.502h2.34a4.41 4.41 0 0 0 4.41-4.41V6.75A.75.75 0 0 1 9.25 6" />
</svg>
